archdroid-icon-theme/Archdroid-Cyan/mimetypes/scalable/image-x-ico.svg

<?xml version="1.0" encoding="UTF-8" standalone="no"?>
<svg
   xmlns:dc="http://purl.org/dc/elements/1.1/"
   xmlns:cc="http://creativecommons.org/ns#"
   xmlns:rdf="http://www.w3.org/1999/02/22-rdf-syntax-ns#"
   xmlns:svg="http://www.w3.org/2000/svg"
   xmlns="http://www.w3.org/2000/svg"
   xmlns:sodipodi="http://sodipodi.sourceforge.net/DTD/sodipodi-0.dtd"
   xmlns:inkscape="http://www.inkscape.org/namespaces/inkscape"
   fill="#00BCD4"
   width="48"
   height="48"
   viewBox="0 0 48 48"
   id="svg2"
   version="1.1"
   inkscape:version="0.91 r13725"
   sodipodi:docname="image-ico.svg">
  <metadata
     id="metadata10">
    <rdf:RDF>
      <cc:Work
         rdf:about="">
        <dc:format>image/svg+xml</dc:format>
        <dc:type
           rdf:resource="http://purl.org/dc/dcmitype/StillImage" />
        <dc:title></dc:title>
      </cc:Work>
    </rdf:RDF>
  </metadata>
  <defs
     id="defs8" />
  <sodipodi:namedview
     pagecolor="#ffffff"
     bordercolor="#666666"
     borderopacity="1"
     objecttolerance="10"
     gridtolerance="10"
     guidetolerance="10"
     inkscape:pageopacity="0"
     inkscape:pageshadow="2"
     inkscape:window-width="1366"
     inkscape:window-height="713"
     id="namedview6"
     showgrid="false"
     inkscape:zoom="4.9166667"
     inkscape:cx="24.074825"
     inkscape:cy="24.050928"
     inkscape:window-x="0"
     inkscape:window-y="30"
     inkscape:window-maximized="1"
     inkscape:current-layer="svg2"
     inkscape:snap-bbox="true"
     inkscape:bbox-paths="true"
     inkscape:bbox-nodes="true"
     inkscape:snap-bbox-edge-midpoints="true" />
  <path
     d="M 10 6 C 7.79 6 6 7.79 6 10 L 6 38 C 6 40.21 7.79 42 10 42 L 38 42 C 40.21 42 42 40.21 42 38 L 42 10 C 42 7.79 40.21 6 38 6 L 10 6 z M 16.296875 10.349609 L 17.78125 10.349609 L 17.78125 11.650391 L 16.296875 11.650391 L 16.296875 10.349609 z M 22.175781 13.146484 C 22.969238 13.146484 23.611165 13.37793 24.103516 13.841797 C 24.599935 14.301595 24.840495 14.887533 24.824219 15.599609 L 24.8125 15.636719 L 23.462891 15.636719 C 23.462891 15.274577 23.343587 14.967122 23.103516 14.714844 C 22.867513 14.462565 22.558268 14.335938 22.175781 14.335938 C 21.618327 14.335938 21.222168 14.538411 20.990234 14.945312 C 20.758301 15.348145 20.642578 15.856445 20.642578 16.466797 L 20.642578 16.679688 C 20.642578 17.302246 20.758301 17.815918 20.990234 18.21875 C 21.222168 18.617513 21.618327 18.816406 22.175781 18.816406 C 22.537923 18.816406 22.841634 18.709635 23.089844 18.498047 C 23.338053 18.282389 23.462891 18.014811 23.462891 17.693359 L 24.804688 17.693359 L 24.818359 17.730469 C 24.838704 18.348958 24.585449 18.880534 24.060547 19.328125 C 23.539714 19.775716 22.912272 20 22.175781 20 C 21.203288 20 20.45638 19.687174 19.935547 19.060547 C 19.418783 18.433919 19.160156 17.639974 19.160156 16.679688 L 19.160156 16.466797 C 19.160156 15.510579 19.418783 14.718424 19.935547 14.091797 C 20.45638 13.4611 21.203288 13.146484 22.175781 13.146484 z M 28.761719 13.146484 C 29.709798 13.146484 30.451172 13.4611 30.988281 14.091797 C 31.52946 14.718424 31.800781 15.523112 31.800781 16.507812 L 31.800781 16.636719 C 31.800781 17.629557 31.52946 18.439779 30.988281 19.066406 C 30.451172 19.688965 29.713379 20 28.773438 20 C 27.829427 20 27.0861 19.687174 26.544922 19.060547 C 26.007812 18.433919 25.740234 17.625488 25.740234 16.636719 L 25.740234 16.507812 C 25.740234 15.527181 26.007812 14.722493 26.544922 14.091797 C 27.090169 13.4611 27.829915 13.146484 28.761719 13.146484 z M 16.296875 13.267578 L 17.78125 13.267578 L 17.78125 19.871094 L 16.296875 19.871094 L 16.296875 13.267578 z M 28.761719 14.335938 C 28.244954 14.335938 27.85791 14.542155 27.601562 14.953125 C 27.349284 15.364095 27.222656 15.881185 27.222656 16.507812 L 27.222656 16.636719 C 27.222656 17.279622 27.349284 17.804036 27.601562 18.210938 C 27.849772 18.61377 28.240397 18.816406 28.773438 18.816406 C 29.290202 18.816406 29.677246 18.61377 29.933594 18.210938 C 30.19401 17.804036 30.324219 17.279622 30.324219 16.636719 L 30.324219 16.507812 C 30.324219 15.877116 30.19401 15.360026 29.933594 14.953125 C 29.677246 14.542155 29.286621 14.335938 28.761719 14.335938 z M 29 24 L 38 36 L 10 36 L 17 27 L 22 33.009766 L 29 24 z "
     id="path4163" />
</svg>

<svg xmlns="http://www.w3.org/2000/svg" fill="#00BCD4" viewBox="0 0 48 48"><path d="m10 6c-2.21 0-4 1.79-4 4v28c0 2.21 1.79 4 4 4h28c2.21 0 4-1.79 4-4v-28c0-2.21-1.79-4-4-4h-28m6.297 4.35h1.484v1.301h-1.484v-1.301m5.879 2.797c.793 0 1.435.231 1.928.695.496.46.737 1.046.721 1.758l-.012.037h-1.35c0-.362-.119-.67-.359-.922-.236-.252-.545-.379-.928-.379-.557 0-.954.202-1.186.609-.232.403-.348.911-.348 1.521v.213c0 .623.116 1.136.348 1.539.232.399.628.598 1.186.598.362 0 .666-.107.914-.318.248-.216.373-.483.373-.805h1.342l.014.037c.02.618-.233 1.15-.758 1.598-.521.448-1.148.672-1.885.672-.972 0-1.719-.313-2.24-.939-.517-.627-.775-1.421-.775-2.381v-.213c0-.956.259-1.748.775-2.375.521-.631 1.268-.945 2.24-.945m6.586 0c.948 0 1.689.315 2.227.945.541.627.813 1.431.813 2.416v.129c0 .993-.271 1.803-.813 2.43-.537.623-1.275.934-2.215.934-.944 0-1.687-.313-2.229-.939-.537-.627-.805-1.435-.805-2.424v-.129c0-.981.268-1.785.805-2.416.545-.631 1.285-.945 2.217-.945m-12.465.121h1.484v6.604h-1.484v-6.604m12.465 1.068c-.517 0-.904.206-1.16.617-.252.411-.379.928-.379 1.555v.129c0 .643.127 1.167.379 1.574.248.403.639.605 1.172.605.517 0 .904-.203 1.16-.605.26-.407.391-.931.391-1.574v-.129c0-.631-.13-1.148-.391-1.555-.256-.411-.647-.617-1.172-.617m.238 9.664l9 12h-28l7-9 5 6.01 7-9.01"/></svg>
